src/assets/img/logo_mono.svg

<svg fill="none" height="29" viewBox="0 0 137 29" width="137" xmlns="http://www.w3.org/2000/svg" xmlns:xlink="http://www.w3.org/1999/xlink"><linearGradient id="a"><stop offset="0"/><stop offset="1" stop-color="#fff"/></linearGradient><linearGradient id="b" gradientUnits="userSpaceOnUse" x1="115.506" x2="133.338" xlink:href="#a" y1="2.97616" y2="13.6585"/><linearGradient id="c" gradientUnits="userSpaceOnUse" x1="118.089" x2="130.178" y1="22.8928" y2="7.66581"><stop offset="0" stop-color="#dedede"/><stop offset="1" stop-color="#f4f4f4"/></linearGradient><linearGradient id="d" gradientUnits="userSpaceOnUse" x1="114.136" x2="117.734" xlink:href="#a" y1="12.7129" y2="24.9283"/><clipPath id="e"><path d="m0 0h137v29h-137z"/></clipPath><g clip-path="url(#e)"><path d="m2.572 24v-19.88h3.864v16.492h10.136v3.388zm22.19.28c-1.176 0-2.24-.196-3.192-.588-.952-.4107-1.764-.9613-2.436-1.652s-1.1947-1.4933-1.568-2.408c-.3547-.9147-.532-1.876-.532-2.884 0-1.0453.1773-2.0253.532-2.94.3547-.9333.868-1.7453 1.54-2.436.672-.7093 1.484-1.2693 2.436-1.68.9707-.41067 2.0533-.616 3.248-.616s2.2587.20533 3.192.616c.952.4107 1.7547.9613 2.408 1.652.672.6907 1.176 1.4933 1.512 2.408.3547.9147.532 1.8667.532 2.856 0 .2427-.0093.476-.028.7 0 .224-.0187.4107-.056.56h-11.34c.056.5787.196 1.092.42 1.54s.5133.8307.868 1.148.756.56 1.204.728.9147.252 1.4.252c.7467 0 1.4467-.1773 2.1-.532.672-.3733 1.1293-.8587 1.372-1.456l3.22.896c-.5413 1.12-1.4093 2.044-2.604 2.772-1.176.7093-2.5853 1.064-4.228 1.064zm3.808-8.848c-.0933-1.1013-.504-1.9787-1.232-2.632-.7093-.672-1.5773-1.008-2.604-1.008-.504 0-.98.0933-1.428.28-.4293.168-.812.4107-1.148.728s-.616.7-.84 1.148c-.2053.448-.3267.9427-.364 1.484zm10.1537 8.848c-.7093 0-1.372-.112-1.988-.336-.616-.2427-1.148-.5693-1.596-.98-.448-.4293-.8026-.924-1.064-1.484-.2426-.56-.364-1.176-.364-1.848 0-.6907.1494-1.3253.448-1.904.3174-.5973.7467-1.1013 1.288-1.512.56-.4107 1.2227-.728 1.988-.952.7654-.2427 1.6054-.364 2.52-.364.6534 0 1.288.056 1.904.168.6347.112 1.1947.2707 1.68.476v-.84c0-.9707-.28-1.7173-.84-2.24-.5413-.5227-1.3533-.784-2.436-.784-.784 0-1.5493.14-2.296.42-.7466.28-1.512.6907-2.296 1.232l-1.148-2.38c1.8854-1.25067 3.92-1.876 6.104-1.876 2.1094 0 3.7427.52267 4.9 1.568 1.176 1.0267 1.764 2.52 1.764 4.48v4.564c0 .392.0654.672.196.84.1494.168.3827.2613.7.28v3.192c-.6346.1307-1.1853.196-1.652.196-.7093 0-1.26-.1587-1.652-.476-.3733-.3173-.6066-.7373-.7-1.26l-.084-.812c-.6533.8587-1.4466 1.512-2.38 1.96-.9333.448-1.932.672-2.996.672zm1.064-2.744c.6347 0 1.232-.112 1.792-.336.5787-.224 1.0267-.5227 1.344-.896.4107-.3173.616-.672.616-1.064v-1.68c-.448-.168-.9333-.2987-1.456-.392-.5226-.112-1.0266-.168-1.512-.168-.9706 0-1.764.224-2.38.672-.616.4293-.924.98-.924 1.652 0 .6347.2427 1.1667.728 1.596.4854.4107 1.0827.616 1.792.616zm17.0861 2.744c-1.008 0-1.9413-.196-2.8-.588-.8586-.392-1.596-.9333-2.212-1.624s-1.1013-1.4933-1.456-2.408c-.336-.9333-.504-1.932-.504-2.996s.1587-2.0533.476-2.968c.336-.9147.7934-1.7173 1.372-2.408.5787-.6907 1.2694-1.232 2.072-1.624.8027-.392 1.68-.588 2.632-.588 1.0827 0 2.0534.26133 2.912.784.8774.5227 1.5587 1.204 2.044 2.044v-8.344h3.752v16.128c0 .392.0654.672.196.84.1307.168.3547.2613.672.28v3.192c-.6533.1307-1.1853.196-1.596.196-.672 0-1.2226-.168-1.652-.504-.4293-.336-.672-.7747-.728-1.316l-.084-.924c-.5413.9333-1.2786 1.6427-2.212 2.128-.9146.4667-1.876.7-2.884.7zm.98-3.192c.3547 0 .7187-.056 1.092-.168.3734-.1307.7187-.308 1.036-.532.3174-.224.5974-.4853.84-.784.2614-.2987.4574-.6253.588-.98v-3.5c-.1493-.4107-.364-.784-.644-1.12-.2613-.3547-.5693-.6533-.924-.896-.336-.2613-.7-.4667-1.092-.616-.3733-.1493-.7466-.224-1.12-.224-.56 0-1.0826.1213-1.568.364-.4666.2427-.868.5787-1.204 1.008-.336.4107-.5973.8867-.784 1.428-.1866.5413-.28 1.1013-.28 1.68 0 .616.1027 1.1853.308 1.708.2054.5227.4854.98.84 1.372.3547.392.7747.7 1.26.924.504.224 1.0547.336 1.652.336zm19.7549-.364c.9147 0 1.68-.1867 2.296-.56.6347-.3733 1.1387-.8587 1.512-1.456.392-.5973.6627-1.2787.812-2.044.168-.784.252-1.5867.252-2.408v-10.136h3.836v10.136c0 1.3627-.168 2.6413-.504 3.836-.3173 1.1947-.8306 2.24-1.54 3.136-.6906.896-1.5866 1.6053-2.688 2.128-1.1013.5227-2.4173.784-3.948.784-1.5866 0-2.94-.2707-4.06-.812-1.1013-.56-1.9973-1.288-2.688-2.184-.6906-.9147-1.1946-1.9693-1.512-3.164-.2986-1.1947-.448-2.436-.448-3.724v-10.136h3.864v10.136c0 .84.0747 1.652.224 2.436.168.7653.4387 1.4467.812 2.044.392.5973.896 1.0827 1.512 1.456.616.3547 1.372.532 2.268.532zm14.644-16.604 4.956 7.392 4.9283-7.392h4.172l-7.0843 10.08 6.8603 9.8h-4.172l-4.7043-7.112-4.732 7.112h-4.2l6.86-9.8-7.084-10.08z" fill="#fff"/><g stroke-linecap="round" stroke-width="3.46463"><path d="m133.338 13.3028-17.789-10.25119" stroke="url(#b)"/><path d="m115.622 23.7326 17.806-10.28" stroke="url(#c)"/><path d="m115.622 23.7327.008-9.1585" stroke="url(#d)"/></g></g></svg>

<svg width="137" height="29" viewBox="0 0 137 29" fill="none" xmlns="http://www.w3.org/2000/svg">
<g clip-path="url(#clip0)">
<path d="M2.572 24V4.12H6.436V20.612H16.572V24H2.572ZM24.762 24.28C23.586 24.28 22.522 24.084 21.57 23.692C20.618 23.2813 19.806 22.7307 19.134 22.04C18.462 21.3493 17.9393 20.5467 17.566 19.632C17.2113 18.7173 17.034 17.756 17.034 16.748C17.034 15.7027 17.2113 14.7227 17.566 13.808C17.9207 12.8747 18.434 12.0627 19.106 11.372C19.778 10.6627 20.59 10.1027 21.542 9.692C22.5127 9.28133 23.5953 9.076 24.79 9.076C25.9847 9.076 27.0487 9.28133 27.982 9.692C28.934 10.1027 29.7367 10.6533 30.39 11.344C31.062 12.0347 31.566 12.8373 31.902 13.752C32.2567 14.6667 32.434 15.6187 32.434 16.608C32.434 16.8507 32.4247 17.084 32.406 17.308C32.406 17.532 32.3873 17.7187 32.35 17.868H21.01C21.066 18.4467 21.206 18.96 21.43 19.408C21.654 19.856 21.9433 20.2387 22.298 20.556C22.6527 20.8733 23.054 21.116 23.502 21.284C23.95 21.452 24.4167 21.536 24.902 21.536C25.6487 21.536 26.3487 21.3587 27.002 21.004C27.674 20.6307 28.1313 20.1453 28.374 19.548L31.594 20.444C31.0527 21.564 30.1847 22.488 28.99 23.216C27.814 23.9253 26.4047 24.28 24.762 24.28ZM28.57 15.432C28.4767 14.3307 28.066 13.4533 27.338 12.8C26.6287 12.128 25.7607 11.792 24.734 11.792C24.23 11.792 23.754 11.8853 23.306 12.072C22.8767 12.24 22.494 12.4827 22.158 12.8C21.822 13.1173 21.542 13.5 21.318 13.948C21.1127 14.396 20.9913 14.8907 20.954 15.432H28.57ZM38.7237 24.28C38.0144 24.28 37.3517 24.168 36.7357 23.944C36.1197 23.7013 35.5877 23.3747 35.1397 22.964C34.6917 22.5347 34.3371 22.04 34.0757 21.48C33.8331 20.92 33.7117 20.304 33.7117 19.632C33.7117 18.9413 33.8611 18.3067 34.1597 17.728C34.4771 17.1307 34.9064 16.6267 35.4477 16.216C36.0077 15.8053 36.6704 15.488 37.4357 15.264C38.2011 15.0213 39.0411 14.9 39.9557 14.9C40.6091 14.9 41.2437 14.956 41.8597 15.068C42.4944 15.18 43.0544 15.3387 43.5397 15.544V14.704C43.5397 13.7333 43.2597 12.9867 42.6997 12.464C42.1584 11.9413 41.3464 11.68 40.2637 11.68C39.4797 11.68 38.7144 11.82 37.9677 12.1C37.2211 12.38 36.4557 12.7907 35.6717 13.332L34.5237 10.952C36.4091 9.70133 38.4437 9.076 40.6277 9.076C42.7371 9.076 44.3704 9.59867 45.5277 10.644C46.7037 11.6707 47.2917 13.164 47.2917 15.124V19.688C47.2917 20.08 47.3571 20.36 47.4877 20.528C47.6371 20.696 47.8704 20.7893 48.1877 20.808V24C47.5531 24.1307 47.0024 24.196 46.5357 24.196C45.8264 24.196 45.2757 24.0373 44.8837 23.72C44.5104 23.4027 44.2771 22.9827 44.1837 22.46L44.0997 21.648C43.4464 22.5067 42.6531 23.16 41.7197 23.608C40.7864 24.056 39.7877 24.28 38.7237 24.28ZM39.7877 21.536C40.4224 21.536 41.0197 21.424 41.5797 21.2C42.1584 20.976 42.6064 20.6773 42.9237 20.304C43.3344 19.9867 43.5397 19.632 43.5397 19.24V17.56C43.0917 17.392 42.6064 17.2613 42.0837 17.168C41.5611 17.056 41.0571 17 40.5717 17C39.6011 17 38.8077 17.224 38.1917 17.672C37.5757 18.1013 37.2677 18.652 37.2677 19.324C37.2677 19.9587 37.5104 20.4907 37.9957 20.92C38.4811 21.3307 39.0784 21.536 39.7877 21.536ZM56.8738 24.28C55.8658 24.28 54.9325 24.084 54.0738 23.692C53.2152 23.3 52.4778 22.7587 51.8618 22.068C51.2458 21.3773 50.7605 20.5747 50.4058 19.66C50.0698 18.7267 49.9018 17.728 49.9018 16.664C49.9018 15.6 50.0605 14.6107 50.3778 13.696C50.7138 12.7813 51.1712 11.9787 51.7498 11.288C52.3285 10.5973 53.0192 10.056 53.8218 9.664C54.6245 9.272 55.5018 9.076 56.4538 9.076C57.5365 9.076 58.5072 9.33733 59.3658 9.86C60.2432 10.3827 60.9245 11.064 61.4098 11.904V3.56H65.1618V19.688C65.1618 20.08 65.2272 20.36 65.3578 20.528C65.4885 20.696 65.7125 20.7893 66.0298 20.808V24C65.3765 24.1307 64.8445 24.196 64.4338 24.196C63.7618 24.196 63.2112 24.028 62.7818 23.692C62.3525 23.356 62.1098 22.9173 62.0538 22.376L61.9698 21.452C61.4285 22.3853 60.6912 23.0947 59.7578 23.58C58.8432 24.0467 57.8818 24.28 56.8738 24.28ZM57.8538 21.088C58.2085 21.088 58.5725 21.032 58.9458 20.92C59.3192 20.7893 59.6645 20.612 59.9818 20.388C60.2992 20.164 60.5792 19.9027 60.8218 19.604C61.0832 19.3053 61.2792 18.9787 61.4098 18.624V15.124C61.2605 14.7133 61.0458 14.34 60.7658 14.004C60.5045 13.6493 60.1965 13.3507 59.8418 13.108C59.5058 12.8467 59.1418 12.6413 58.7498 12.492C58.3765 12.3427 58.0032 12.268 57.6298 12.268C57.0698 12.268 56.5472 12.3893 56.0618 12.632C55.5952 12.8747 55.1938 13.2107 54.8578 13.64C54.5218 14.0507 54.2605 14.5267 54.0738 15.068C53.8872 15.6093 53.7938 16.1693 53.7938 16.748C53.7938 17.364 53.8965 17.9333 54.1018 18.456C54.3072 18.9787 54.5872 19.436 54.9418 19.828C55.2965 20.22 55.7165 20.528 56.2018 20.752C56.7058 20.976 57.2565 21.088 57.8538 21.088ZM77.6087 20.724C78.5234 20.724 79.2887 20.5373 79.9047 20.164C80.5394 19.7907 81.0434 19.3053 81.4167 18.708C81.8087 18.1107 82.0794 17.4293 82.2287 16.664C82.3967 15.88 82.4807 15.0773 82.4807 14.256V4.12H86.3167V14.256C86.3167 15.6187 86.1487 16.8973 85.8127 18.092C85.4954 19.2867 84.9821 20.332 84.2727 21.228C83.5821 22.124 82.6861 22.8333 81.5847 23.356C80.4834 23.8787 79.1674 24.14 77.6367 24.14C76.0501 24.14 74.6967 23.8693 73.5767 23.328C72.4754 22.768 71.5794 22.04 70.8887 21.144C70.1981 20.2293 69.6941 19.1747 69.3767 17.98C69.0781 16.7853 68.9287 15.544 68.9287 14.256V4.12H72.7927V14.256C72.7927 15.096 72.8674 15.908 73.0167 16.692C73.1847 17.4573 73.4554 18.1387 73.8287 18.736C74.2207 19.3333 74.7247 19.8187 75.3407 20.192C75.9567 20.5467 76.7127 20.724 77.6087 20.724ZM92.2527 4.12L97.2087 11.512L102.137 4.12H106.309L99.2247 14.2L106.085 24H101.913L97.2087 16.888L92.4767 24H88.2767L95.1367 14.2L88.0527 4.12H92.2527Z" fill="white"/>
<path d="M133.338 13.3028L115.549 3.05161" stroke="url(#paint0_linear)" stroke-width="3.46463" stroke-linecap="round"/>
<path d="M115.622 23.7326L133.428 13.4526" stroke="url(#paint1_linear)" stroke-width="3.46463" stroke-linecap="round"/>
<path d="M115.622 23.7327L115.63 14.5742" stroke="url(#paint2_linear)" stroke-width="3.46463" stroke-linecap="round"/>
</g>
<defs>
<linearGradient id="paint0_linear" x1="115.506" y1="2.97616" x2="133.338" y2="13.6585" gradientUnits="userSpaceOnUse">
<stop/>
<stop offset="1" stop-color="white"/>
</linearGradient>
<linearGradient id="paint1_linear" x1="118.089" y1="22.8928" x2="130.178" y2="7.66581" gradientUnits="userSpaceOnUse">
<stop stop-color="#DEDEDE"/>
<stop offset="1" stop-color="#F4F4F4"/>
</linearGradient>
<linearGradient id="paint2_linear" x1="114.136" y1="12.7129" x2="117.734" y2="24.9283" gradientUnits="userSpaceOnUse">
<stop/>
<stop offset="1" stop-color="white"/>
</linearGradient>
<clipPath id="clip0">
<rect width="137" height="29" fill="white"/>
</clipPath>
</defs>
</svg>
